packages/icons/src/components/Icon/assets/small-outline/support.svg

<svg width="16" height="16" viewBox="0 0 16 16" fill="none" xmlns="http://www.w3.org/2000/svg">
<path fill-rule="evenodd" clip-rule="evenodd" d="M5.70123 2.79591L7.34319 4.76626C7.77639 4.67861 8.22361 4.67861 8.65681 4.76626L10.2988 2.79591C8.8385 2.15136 7.1615 2.15136 5.70123 2.79591ZM11.4435 3.47245L9.91187 5.31038C10.0597 5.4157 10.2007 5.53457 10.3331 5.66692C10.4654 5.79926 10.5843 5.94026 10.6896 6.08813L12.5275 4.55653C12.3743 4.35558 12.2057 4.16233 12.0217 3.97833C11.8377 3.79433 11.6444 3.62573 11.4435 3.47245ZM13.2041 5.70123L11.2337 7.34319C11.3214 7.77639 11.3214 8.22361 11.2337 8.65681L13.2041 10.2988C13.8486 8.8385 13.8486 7.1615 13.2041 5.70123ZM12.5275 11.4435L10.6896 9.91187C10.5843 10.0597 10.4654 10.2007 10.3331 10.3331C10.2007 10.4654 10.0597 10.5843 9.91187 10.6896L11.4435 12.5275C11.6444 12.3743 11.8377 12.2057 12.0217 12.0217C12.2057 11.8377 12.3743 11.6444 12.5275 11.4435ZM10.2988 13.2041L8.65681 11.2337C8.22361 11.3214 7.77639 11.3214 7.34319 11.2337L5.70123 13.2041C7.1615 13.8486 8.8385 13.8486 10.2988 13.2041ZM4.55653 12.5275L6.08813 10.6896C5.94026 10.5843 5.79926 10.4654 5.66692 10.3331C5.53457 10.2007 5.4157 10.0597 5.31038 9.91187L3.47245 11.4435C3.62573 11.6444 3.79433 11.8377 3.97833 12.0217C4.16233 12.2057 4.35558 12.3743 4.55653 12.5275ZM2.79591 10.2988L4.76626 8.65681C4.67861 8.22361 4.67861 7.77639 4.76626 7.34319L2.79591 5.70123C2.15136 7.1615 2.15136 8.8385 2.79591 10.2988ZM3.47245 4.55653L5.31038 6.08813C5.4157 5.94026 5.53457 5.79926 5.66692 5.66692C5.79926 5.53457 5.94026 5.4157 6.08813 5.31038L4.55653 3.47245C4.35558 3.62573 4.16233 3.79433 3.97833 3.97833C3.79433 4.16233 3.62573 4.35558 3.47245 4.55653ZM4.33443 2.03478C6.5759 0.655073 9.4241 0.655073 11.6656 2.03478C12.1229 2.3163 12.5544 2.65494 12.9497 3.05025C13.3451 3.44557 13.6837 3.87707 13.9652 4.33443C15.3449 6.5759 15.3449 9.4241 13.9652 11.6656C13.6837 12.1229 13.3451 12.5544 12.9497 12.9497C12.5544 13.3451 12.1229 13.6837 11.6656 13.9652C9.4241 15.3449 6.5759 15.3449 4.33443 13.9652C3.87707 13.6837 3.44556 13.3451 3.05025 12.9497C2.65494 12.5544 2.3163 12.1229 2.03478 11.6656C0.655073 9.4241 0.655073 6.5759 2.03478 4.33443C2.3163 3.87707 2.65494 3.44557 3.05025 3.05025C3.44557 2.65494 3.87707 2.3163 4.33443 2.03478ZM8.67003 6.12874C8.23788 5.97445 7.76212 5.97445 7.32998 6.12874C7.06241 6.22427 6.81082 6.37917 6.59499 6.59499C6.37917 6.81082 6.22427 7.06241 6.12874 7.32998C5.97445 7.76212 5.97445 8.23789 6.12874 8.67003C6.22427 8.93759 6.37917 9.18918 6.59499 9.40501C6.81082 9.62084 7.06241 9.77573 7.32997 9.87126C7.76212 10.0256 8.23788 10.0256 8.67003 9.87126C8.93759 9.77573 9.18918 9.62084 9.40501 9.40501C9.62084 9.18918 9.77573 8.93759 9.87126 8.67003C10.0256 8.23789 10.0256 7.76212 9.87126 7.32998C9.77573 7.06241 9.62084 6.81082 9.40501 6.59499C9.18918 6.37917 8.93759 6.22427 8.67003 6.12874Z" fill="black"/>
</svg>

<svg xmlns="http://www.w3.org/2000/svg" width="16" height="16" fill="none" viewBox="0 0 16 16">
    <path d="m5.701 2.796 1.642 1.97a3.3 3.3 0 0 1 1.314 0l1.642-1.97a5.7 5.7 0 0 0-4.598 0m5.743.676L9.912 5.31a3.3 3.3 0 0 1 .778.778l1.838-1.531a5.7 5.7 0 0 0-1.085-1.085m1.76 2.23-1.97 1.641c.087.433.087.88 0 1.314l1.97 1.642a5.7 5.7 0 0 0 0-4.598m-.677 5.742L10.69 9.912a3.3 3.3 0 0 1-.778.778l1.531 1.838a5.7 5.7 0 0 0 1.085-1.085m-2.228 1.76-1.642-1.97a3.3 3.3 0 0 1-1.314 0l-1.642 1.97a5.7 5.7 0 0 0 4.598 0m-5.742-.677 1.531-1.837a3.3 3.3 0 0 1-.778-.778l-1.838 1.531a5.8 5.8 0 0 0 1.085 1.085M2.796 10.3l1.97-1.642a3.3 3.3 0 0 1 0-1.314l-1.97-1.642a5.7 5.7 0 0 0 0 4.598m.676-5.742 1.838 1.53a3.3 3.3 0 0 1 .778-.778L4.557 3.472a5.8 5.8 0 0 0-1.085 1.085m.862-2.522a7.01 7.01 0 0 1 7.332 0 7 7 0 0 1 2.3 2.3 7.01 7.01 0 0 1 0 7.33 7 7 0 0 1-2.3 2.3 7.01 7.01 0 0 1-7.332 0 7 7 0 0 1-2.3-2.3 7.01 7.01 0 0 1 0-7.33 7 7 0 0 1 2.3-2.3M8.67 6.129a2 2 0 0 0-1.34 0c-.268.095-.52.25-.735.466-.216.216-.37.467-.466.735a2 2 0 0 0 0 1.34c.095.268.25.52.466.735a1.99 1.99 0 0 0 3.276-.735 2 2 0 0 0 0-1.34 2 2 0 0 0-.466-.735 2 2 0 0 0-.735-.466" clip-rule="evenodd"/>
</svg>
